images/white-overlay.svg

<svg width="418" height="68" viewBox="0 0 418 68" fill="none" xmlns="http://www.w3.org/2000/svg">
<path fill-rule="evenodd" clip-rule="evenodd" d="M0 29.2723C49.8111 33.1558 142.803 32.8672 173.912 28.8749C195.536 26.0997 215.146 21.9909 234.225 17.9931C243.347 16.0818 252.413 13.6909 261.547 11.2823C282.757 5.6889 304.329 0 327.8 0C349.718 0 369.892 9.71262 388.837 18.8332C394.823 21.7151 400.687 24.5379 406.444 26.9765L406.452 26.9802L406.458 26.9827C410.375 28.6417 414.222 30.2715 418 31.8183V67.722H0V29.2723ZM304.713 10.8978C305.217 11.4203 304.096 11.8313 303.176 12.1689L303.163 12.1738C302.851 12.2881 302.668 12.367 302.533 12.4248C302.27 12.5383 302.193 12.5713 301.703 12.6336C301.614 12.645 301.39 12.709 301.174 12.7707C300.972 12.8285 300.777 12.8843 300.706 12.8931C300.332 12.9395 300.051 13.0553 299.804 13.1569C299.651 13.2199 299.512 13.2774 299.371 13.3097C298.465 13.518 297.552 13.6865 296.714 13.8413L296.611 13.8603C295.721 14.0246 294.911 14.176 294.129 14.3606C292.627 14.715 291.114 15.0207 289.646 15.3132L289.196 15.4027C288.57 15.5272 288.04 15.5887 287.52 15.6488C286.942 15.7158 286.377 15.7812 285.709 15.9304C284.87 16.1179 284.191 16.2304 283.523 16.3414C282.763 16.4674 282.016 16.5914 281.058 16.8208C280.818 16.8782 280.245 16.9899 279.673 17.1015L279.672 17.1016C279.105 17.2121 278.538 17.3225 278.299 17.3795C277.3 17.6176 276.436 17.7684 276.105 17.1908C275.878 16.7954 275.95 16.7592 276.351 16.5578C276.536 16.4651 276.79 16.3374 277.117 16.1235C277.35 16.0678 277.907 15.8865 278.463 15.7052C279.018 15.5241 279.574 15.343 279.81 15.2866C280.655 15.0841 281.27 14.8999 281.872 14.7191L281.872 14.719C282.557 14.5135 283.228 14.3124 284.207 14.0937C285.549 13.7939 286.904 13.5246 288.217 13.2634L288.217 13.2633L288.669 13.1734C290.137 12.8809 291.556 12.5936 292.943 12.2661C293.892 12.0423 294.845 11.8655 295.719 11.7041L295.773 11.6943C296.205 11.6144 296.459 11.6286 296.697 11.642C296.942 11.6557 297.172 11.6686 297.563 11.5785C297.83 11.5171 298.205 11.4122 298.603 11.3013C299.263 11.1169 299.983 10.9155 300.368 10.8686L300.455 10.858C300.541 10.8475 300.622 10.8374 300.698 10.8278C301.464 10.7303 301.88 10.6507 302.126 10.5602C303.049 10.2217 304.207 10.3728 304.713 10.8978ZM16.1592 34.1874C16.6926 34.115 17.342 34.0268 17.2485 33.5155C17.1545 33.0017 16.6448 32.644 16.1099 32.7166C15.9668 32.7361 15.7464 32.712 15.3539 32.6293C15.3023 32.6184 15.2459 32.606 15.1857 32.5928L15.1852 32.5927C14.9885 32.5496 14.5884 32.5571 14.2219 32.5641C14.0015 32.5683 13.7932 32.5722 13.6487 32.5648C13.4367 32.5538 13.3309 32.4962 13.218 32.4349C13.1079 32.375 12.9911 32.3114 12.7624 32.284L12.7343 32.2807C12.2724 32.2254 11.7683 32.1656 11.2531 32.1435C10.4996 32.1112 9.74266 32.0412 8.96067 31.9649L8.7202 31.9414C8.02079 31.8729 7.29944 31.8022 6.5753 31.7577C6.04695 31.7252 5.67093 31.743 5.28674 31.7612C4.94861 31.7772 4.60415 31.7935 4.14393 31.7761C4.01586 31.7713 3.70012 31.7973 3.38453 31.8232C3.06837 31.8493 2.75236 31.8753 2.62534 31.8703C2.40949 31.9692 2.25245 32.016 2.13846 32.05C1.89085 32.1239 1.84636 32.1372 1.84347 32.4922C1.83925 33.0107 2.29369 33.0723 2.83671 33.0937C2.9669 33.0988 3.26797 33.1302 3.56954 33.1616C3.87373 33.1932 4.17841 33.225 4.30874 33.2299C4.82981 33.2496 5.22098 33.3078 5.61834 33.3669C5.96839 33.419 6.32324 33.4718 6.77593 33.4996C7.13647 33.5218 7.42413 33.5878 7.71869 33.6555C7.9832 33.7162 8.25327 33.7782 8.58667 33.8109L8.82622 33.8343C9.60817 33.9105 10.4152 33.9857 11.2307 34.0207C11.6555 34.039 12.0842 34.0888 12.5545 34.1451L12.6088 34.1516C13.0521 34.2047 13.5348 34.2626 14.025 34.2879C14.101 34.2918 14.1837 34.2759 14.2742 34.2586C14.4204 34.2305 14.5869 34.1985 14.7782 34.2399C14.8148 34.2478 14.9235 34.2447 15.036 34.2416C15.1562 34.2382 15.2808 34.2347 15.3265 34.2443C15.5775 34.2972 15.6234 34.2874 15.781 34.2536C15.8614 34.2364 15.9708 34.213 16.1515 34.1884L16.1592 34.1874Z" fill="white"/>
</svg>

<svg width="418" height="68" fill="none" xmlns="http://www.w3.org/2000/svg">
    <path fill-rule="evenodd" clip-rule="evenodd" d="M0 29.272c49.811 3.884 142.803 3.595 173.912-.397 21.624-2.775 41.234-6.884 60.313-10.882 9.122-1.911 18.188-4.302 27.322-6.71C282.757 5.688 304.329 0 327.8 0c21.918 0 42.092 9.713 61.037 18.833 5.986 2.882 11.85 5.705 17.607 8.144l.008.003.006.003c3.917 1.659 7.764 3.288 11.542 4.835v35.904H0v-38.45Zm304.713-18.374c.504.522-.617.933-1.537 1.27l-.013.006c-.312.114-.495.193-.63.25-.263.114-.34.147-.83.21-.089.011-.313.075-.529.137-.202.057-.397.113-.468.122-.374.046-.655.162-.902.264-.153.063-.292.12-.433.153-.906.208-1.819.377-2.657.531l-.103.02c-.89.164-1.7.315-2.482.5-1.502.354-3.015.66-4.483.952l-.45.09c-.626.124-1.156.186-1.676.246-.578.067-1.143.132-1.811.281-.839.188-1.518.3-2.186.411-.76.126-1.507.25-2.465.48-.24.057-.813.169-1.385.28h-.001c-.567.111-1.134.222-1.373.279-.999.238-1.863.388-2.194-.19-.227-.395-.155-.43.246-.632a7.13 7.13 0 0 0 .766-.434c.233-.056.79-.237 1.346-.419.555-.18 1.111-.362 1.347-.418.845-.203 1.46-.387 2.062-.568a30.537 30.537 0 0 1 2.335-.625c1.342-.3 2.697-.57 4.01-.83l.452-.09c1.468-.293 2.887-.58 4.274-.908a57.76 57.76 0 0 1 2.776-.562l.054-.01a3.4 3.4 0 0 1 .924-.052c.245.014.475.027.866-.063.267-.062.642-.167 1.04-.278.66-.184 1.38-.386 1.765-.432l.087-.011.243-.03c.766-.098 1.182-.177 1.428-.268.923-.338 2.081-.187 2.587.338ZM16.159 34.188c.534-.073 1.183-.161 1.09-.672-.095-.514-.604-.872-1.14-.8-.142.02-.363-.004-.755-.087-.052-.01-.108-.023-.168-.036-.197-.043-.598-.036-.964-.029-.22.004-.429.008-.573 0-.212-.01-.318-.068-.431-.13-.11-.059-.227-.123-.456-.15l-.028-.003a19.418 19.418 0 0 0-1.48-.137 42.313 42.313 0 0 1-2.293-.18l-.24-.023c-.7-.068-1.422-.139-2.146-.183a10.766 10.766 0 0 0-1.288.003c-.338.016-.683.033-1.143.015-.128-.005-.444.021-.76.047a9.63 9.63 0 0 1-.759.047c-.216.1-.373.146-.487.18-.247.074-.292.087-.295.442-.004.519.45.58.994.602.13.005.431.036.733.068.304.031.608.063.739.068.52.02.912.078 1.31.137.35.052.704.105 1.157.133.36.022.648.088.943.156.264.06.534.122.868.155l.24.023a44.4 44.4 0 0 0 2.404.187c.425.018.853.068 1.324.124l.054.007c.443.053.926.11 1.416.136.076.004.159-.012.25-.03a1.2 1.2 0 0 1 .503-.018c.037.008.146.005.258.002.12-.004.245-.007.29.002.252.053.297.043.455.01.08-.018.19-.041.37-.066h.008Z" fill="#fff"/>
</svg>
